dist/img/icons/phone-black.svg

<svg width="27" height="27" viewBox="0 0 27 27" fill="none" xmlns="http://www.w3.org/2000/svg">
<path d="M22.4885 17.1463L17.5083 14.9177C17.3152 14.8342 17.1044 14.8001 16.8948 14.8185C16.6853 14.8369 16.4836 14.9073 16.3081 15.0232C16.294 15.0321 16.2806 15.042 16.268 15.0527L13.6524 17.2823C13.5941 17.3178 13.5281 17.3384 13.46 17.3423C13.3919 17.3462 13.324 17.3332 13.2621 17.3045C11.5493 16.4776 9.77638 14.7184 8.9495 13.0256C8.92025 12.9642 8.90668 12.8966 8.90999 12.8286C8.9133 12.7607 8.9334 12.6947 8.96849 12.6364L11.2044 9.97757C11.215 9.96492 11.2245 9.95121 11.234 9.93749C11.3495 9.76221 11.4197 9.56092 11.4381 9.35176C11.4565 9.1426 11.4226 8.93215 11.3394 8.73937L9.10665 3.76757C8.99886 3.51576 8.81229 3.30572 8.57495 3.16898C8.33761 3.03224 8.06231 2.9762 7.7904 3.00925C6.46315 3.18425 5.24499 3.8364 4.36344 4.84392C3.48189 5.85143 2.99724 7.1454 3.00001 8.48414C3.00001 16.6263 9.62345 23.2498 17.7656 23.2498C19.1044 23.2525 20.3983 22.7679 21.4059 21.8863C22.4134 21.0048 23.0655 19.7866 23.2405 18.4594C23.2733 18.1887 23.2179 17.9147 23.0824 17.6781C22.9469 17.4415 22.7386 17.255 22.4885 17.1463ZM22.4063 18.3539C22.2573 19.4779 21.7041 20.5092 20.85 21.255C19.9959 22.0008 18.8995 22.4099 17.7656 22.406C10.0896 22.406 3.84376 16.1602 3.84376 8.48414C3.83983 7.35029 4.249 6.25383 4.99477 5.39975C5.74054 4.54567 6.77184 3.99244 7.89587 3.84351C7.91273 3.8425 7.92964 3.8425 7.9465 3.84351C8.02973 3.84422 8.11088 3.86953 8.17976 3.91626C8.24864 3.96299 8.30215 4.02905 8.33357 4.10613L10.56 9.07792C10.586 9.13869 10.5973 9.20471 10.5931 9.27066C10.5889 9.33661 10.5693 9.40065 10.5358 9.45761L8.30087 12.1154C8.29032 12.1291 8.27978 12.1418 8.27029 12.1566C8.15122 12.3386 8.0811 12.5483 8.06669 12.7654C8.05228 12.9825 8.09407 13.1996 8.18802 13.3958C9.10454 15.2721 10.9945 17.1484 12.8919 18.0649C13.0895 18.1583 13.3078 18.1989 13.5257 18.1828C13.7437 18.1667 13.9537 18.0945 14.1354 17.9732L14.1744 17.9436L16.7932 15.7161C16.8492 15.6819 16.9126 15.6615 16.978 15.6565C17.0435 15.6516 17.1092 15.6622 17.1697 15.6877L22.1489 17.9194C22.2329 17.9543 22.3034 18.0156 22.3498 18.0939C22.3962 18.1722 22.416 18.2634 22.4063 18.3539Z" fill="black"/>
</svg>

<svg width="27" height="27" viewBox="0 0 27 27" fill="none" xmlns="http://www.w3.org/2000/svg"><path d="M22.488 17.146l-4.98-2.228a1.267 1.267 0 00-1.24.135l-2.616 2.23a.415.415 0 01-.39.021c-1.713-.826-3.486-2.586-4.313-4.278a.411.411 0 01.02-.39l2.235-2.658a1.266 1.266 0 00.135-1.238L9.107 3.767a1.266 1.266 0 00-1.317-.759A5.51 5.51 0 003 8.484C3 16.626 9.623 23.25 17.766 23.25a5.511 5.511 0 005.475-4.79 1.266 1.266 0 00-.753-1.314zm-.082 1.208a4.665 4.665 0 01-4.64 4.052c-7.676 0-13.922-6.246-13.922-13.922a4.665 4.665 0 014.052-4.64.423.423 0 01.05 0 .422.422 0 01.388.262l2.226 4.972a.422.422 0 01-.024.38L8.3 12.115c-.01.014-.021.027-.03.042a1.265 1.265 0 00-.083 1.239c.917 1.876 2.806 3.752 4.704 4.669a1.265 1.265 0 001.243-.092l.04-.03 2.618-2.227a.415.415 0 01.377-.028l4.979 2.231a.422.422 0 01.257.435z" fill="#000"/></svg>
